X:8
T:Scottisch A Catinaux
R:schottische
M:4/4
L:1/8
K:Dmaj
fgfe dAdf | agfg e3A |1 ABcd edef | gfeg f2d2 :|2 ABcd edeg | fedc d3g |:
f2a2 d2cd | edcB A3A |1 ABcd edef | gfeg f2d2 :|2 ABcd edeg | fedc d2z2 |]
